X:29
T:Capuchin. Ru1.109, The
%%VWML:RutherfordVol1-2248-p55-0p55
Z:Transcription by Village Music Project, Steve Mansfield July 2015
F:http://www.village-music-project.org.uk/
F:http://www.vwml.org/record/RutherfordVol1/2248/p55
L:1/8
Q:1/4=100
K:G
D|G(B/c/d) d(B/c/d) gfe|dge dcB AFD|G(B/c/d) d(B/c/d) gfe|dgB AGFG2:|
|:c|"tr"B2G (B/c/d)B (e/f/g)c|"tr"B2G (B/c/d)B AFD|Bcd dBd efg|fag fdfg2:|
W:Cast off & turn your Partner .| Cast up again
W:& turn :| Foot it all 4 & Hands across Quite
W:Round .|. The same back again :||: The first Man
W:sets to the 2d. Wo. & turns .|| The first Wo.
W:does the same with the 2d. Man :|| Cross over
W:half figure :|| Right Hand & Left :|
|:
T:Muffin. Ru1.110, The
B:Rutherford's Country Dances Vol 1, 1756
Z:village music project, Ruairidh Greig July 2015
M:6/8
L:1/8
Q:1/4=100
K:G
D|(G/A/B)G AFD|(E/F/G)E DB,G,|C2AB,2G|G,AG FED|
(G/A/B)G AFD|(E/F/G)E DB,G,|C2A B,2G|G,GFG2:|
|:A|Bcd efg|ded dcB|cag fed|cBcA2B|
c2aB2g|Aag fed|gfe dcB|AGFG2:|
W:The first Cu. Cast off & Hands across with the
W:3d. Cu. .| Cast up and Hands across with the 2d.
W:Cu. :| Cross over & half figure .|. Right Hand &
W:Left :|
|:
